svg-min/gridicons-stats-alt-2.svg

<svg width="24" height="24" viewBox="0 0 24 24" fill="none" xmlns="http://www.w3.org/2000/svg">
<path d="M8.14272 15.8573H5.57129V9.42871H8.14272V15.8573Z" fill="black"/>
<path d="M13.2858 15.8571H10.7144V3H13.2858V15.8571Z" fill="black"/>
<path d="M18.4284 15.8569H15.8569V6.85693H18.4284V15.8569Z" fill="black"/>
<path fill-rule="evenodd" clip-rule="evenodd" d="M21 20.7144H3V18.7144H21V20.7144Z" fill="black"/>
</svg>

<svg width="24" height="24" viewBox="0 0 24 24" xmlns="http://www.w3.org/2000/svg"><rect x="0" fill="none" width="24" height="24"/><g><path d="M8.143 15.857H5.57V9.43h2.573v6.427zM13.286 15.857h-2.572V3h2.572v12.857zM18.428 15.857h-2.57v-9h2.57v9z"/><path fill-rule="evenodd" clip-rule="evenodd" d="M21 20.714H3v-2h18v2z"/></g></svg>
